public/images/typescript-gray.svg

<svg width="101" height="101" viewBox="0 0 101 101" fill="none" xmlns="http://www.w3.org/2000/svg">
<rect width="101" height="101" fill="#BBBBBB"/>
<g id="typescript">
<g id="BASE-GRAYSCALE" filter="url(#filter0_d_303_11482)">
<rect x="-39.276" y="-39.1091" width="180" height="180" rx="32" fill="white"/>
<rect x="-38.776" y="-38.6091" width="179" height="179" rx="31.5" stroke="#878787"/>
</g>
<g id="Frame 2">
<g id="Asset 23" clip-path="url(#clip0_303_11482)">
<g id="Group">
<path id="Vector" d="M0.380615 0.485107H100.381V100.485H0.380615V0.485107Z" fill="#5F5F5F"/>
<path id="Vector_2" d="M48.3806 37.4851H53.1706V45.765H40.1706V82.6451L39.8306 82.7351C39.3606 82.855 33.1906 82.855 31.8306 82.7351L30.7706 82.6451V45.7951H17.7706V37.4851H21.9906C24.2406 37.4851 29.9906 37.4851 34.8306 37.4851C39.6706 37.4851 45.7406 37.4851 48.3806 37.4851ZM85.0106 78.7351C83.0213 80.7976 80.4564 82.2125 77.6506 82.795C76.1606 83.205 75.9106 83.215 72.5706 83.2051C69.2306 83.1951 68.9606 83.205 67.3306 82.765C63.4321 81.8766 59.9454 79.7036 57.4306 76.5951C56.7489 75.7253 56.1653 74.783 55.6906 73.7851C55.6906 73.7151 55.8506 73.5751 56.0506 73.4851C56.2506 73.3951 56.6806 73.1251 57.0506 72.9251C57.4206 72.7251 58.0506 72.3451 58.4406 72.125C58.8306 71.905 60.0806 71.185 61.1406 70.545C61.8261 70.1061 62.545 69.7216 63.2906 69.3951C63.3906 69.3951 63.6006 69.605 63.7506 69.875C64.911 71.6671 66.503 73.1389 68.3806 74.155C69.6869 74.6428 71.0587 74.9327 72.4506 75.015C73.682 74.9411 74.8923 74.6605 76.0306 74.185C76.905 73.8283 77.6365 73.1918 78.1106 72.375C78.5206 71.7351 78.5606 71.565 78.5506 70.375C78.6609 69.6845 78.5265 68.977 78.1706 68.375C77.3006 66.935 76.1106 66.1851 71.3006 64.055C66.3006 61.855 64.0906 60.5451 62.3006 58.7751C61.2555 57.8686 60.4196 56.7461 59.8506 55.4851C58.7606 53.375 58.6106 52.6851 58.6006 49.5451C58.495 48.3156 58.5828 47.0773 58.8606 45.875C59.3082 44.5149 59.9408 43.2228 60.7406 42.035C61.3502 41.2604 62.0408 40.553 62.8006 39.925C65.2898 38.0559 68.2989 37.0074 71.4106 36.925C71.7706 36.925 72.9606 36.9851 74.0706 37.0651C76.781 37.1511 79.3924 38.1045 81.5206 39.785C83.1006 41.035 85.5206 43.9751 85.2606 44.3651C85.1006 44.5951 78.8606 48.755 78.4606 48.875C78.2106 48.955 78.0406 48.8751 77.6906 48.4551C75.5706 45.9151 74.6906 45.3651 72.6906 45.2351C71.5559 45.0623 70.3979 45.3268 69.4506 45.9751C68.9382 46.3259 68.5271 46.8053 68.2585 47.3652C67.99 47.9251 67.8734 48.5458 67.9206 49.1651C67.9206 51.2851 68.7506 52.2851 71.7506 53.7751C73.6906 54.7251 75.3406 55.5051 75.4706 55.5051C75.6006 55.5051 79.6706 57.505 80.7206 58.125C85.5906 60.9851 87.5806 63.9251 88.0906 68.9851C88.3275 70.7336 88.1819 72.5128 87.664 74.1996C87.146 75.8865 86.268 77.4407 85.0906 78.755L85.0106 78.7351Z" fill="white"/>
</g>
</g>
</g>
</g>
<defs>
<filter id="filter0_d_303_11482" x="-79.276" y="-75.1091" width="260" height="260" filterUnits="userSpaceOnUse" color-interpolation-filters="sRGB">
<feFlood flood-opacity="0" result="BackgroundImageFix"/>
<feColorMatrix in="SourceAlpha" type="matrix" values="0 0 0 0 0 0 0 0 0 0 0 0 0 0 0 0 0 0 127 0" result="hardAlpha"/>
<feOffset dy="4"/>
<feGaussianBlur stdDeviation="20"/>
<feComposite in2="hardAlpha" operator="out"/>
<feColorMatrix type="matrix" values="0 0 0 0 0.0367917 0 0 0 0 0.0348958 0 0 0 0 0.0484375 0 0 0 0.1 0"/>
<feBlend mode="normal" in2="BackgroundImageFix" result="effect1_dropShadow_303_11482"/>
<feBlend mode="normal" in="SourceGraphic" in2="effect1_dropShadow_303_11482" result="shape"/>
</filter>
<clipPath id="clip0_303_11482">
<rect width="100" height="100" fill="white" transform="translate(0.380615 0.485107)"/>
</clipPath>
</defs>
</svg>

<svg xmlns="http://www.w3.org/2000/svg" width="101" height="101" fill="none"><path fill="#BBB" d="M0 0h101v101H0z"/><g filter="url(#a)"><rect width="180" height="180" x="-39.276" y="-39.109" fill="#fff" rx="32"/><rect width="179" height="179" x="-38.776" y="-38.609" stroke="#878787" rx="31.5"/></g><g clip-path="url(#b)"><path fill="#5F5F5F" d="M.38.485h100.001v100h-100v-100Z"/><path fill="#fff" d="M48.38 37.485h4.79v8.28h-13v36.88l-.34.09c-.47.12-6.64.12-8 0l-1.06-.09v-36.85h-13v-8.31h30.61Zm36.63 41.25a14.25 14.25 0 0 1-7.36 4.06c-1.49.41-1.74.42-5.08.41-3.34-.01-3.61 0-5.24-.44a17.83 17.83 0 0 1-9.9-6.17 15.004 15.004 0 0 1-1.74-2.81c0-.07.16-.21.36-.3.2-.09.63-.36 1-.56.37-.2 1-.58 1.39-.8.39-.22 1.64-.94 2.7-1.58a15.57 15.57 0 0 1 2.15-1.15c.1 0 .31.21.46.48a12.74 12.74 0 0 0 4.63 4.28c1.307.488 2.679.778 4.07.86a10.997 10.997 0 0 0 3.58-.83 4.27 4.27 0 0 0 2.08-1.81c.41-.64.45-.81.44-2a3 3 0 0 0-.38-2c-.87-1.44-2.06-2.19-6.87-4.32-5-2.2-7.21-3.51-9-5.28a9.56 9.56 0 0 1-2.45-3.29c-1.09-2.11-1.24-2.8-1.25-5.94a11.812 11.812 0 0 1 .26-3.67 15.614 15.614 0 0 1 1.88-3.84 13.85 13.85 0 0 1 2.06-2.11 15 15 0 0 1 8.61-3c.36 0 1.55.06 2.66.14a12.67 12.67 0 0 1 7.45 2.72c1.58 1.25 4 4.19 3.74 4.58-.16.23-6.4 4.39-6.8 4.51-.25.08-.42 0-.77-.42-2.12-2.54-3-3.09-5-3.22a4.53 4.53 0 0 0-3.24.74 3.54 3.54 0 0 0-1.53 3.19c0 2.12.83 3.12 3.83 4.61 1.94.95 3.59 1.73 3.72 1.73.13 0 4.2 2 5.25 2.62 4.87 2.86 6.86 5.8 7.37 10.86a12.19 12.19 0 0 1-3 9.77l-.08-.02Z"/></g><defs><clipPath id="b"><path fill="#fff" d="M.38.485h100v100H.38z"/></clipPath><filter id="a" width="260" height="260" x="-79.276" y="-75.109" color-interpolation-filters="sRGB" filterUnits="userSpaceOnUse"><feFlood flood-opacity="0" result="BackgroundImageFix"/><feColorMatrix in="SourceAlpha" result="hardAlpha" values="0 0 0 0 0 0 0 0 0 0 0 0 0 0 0 0 0 0 127 0"/><feOffset dy="4"/><feGaussianBlur stdDeviation="20"/><feComposite in2="hardAlpha" operator="out"/><feColorMatrix values="0 0 0 0 0.0367917 0 0 0 0 0.0348958 0 0 0 0 0.0484375 0 0 0 0.1 0"/><feBlend in2="BackgroundImageFix" result="effect1_dropShadow_303_11482"/><feBlend in="SourceGraphic" in2="effect1_dropShadow_303_11482" result="shape"/></filter></defs></svg>
